!!!!SEGMENT: pl-wnifc--13846--122_anonim--piesni-polskie-i-ruskie-ludu-galicyjskiego-122-tiazko-znesty-toji-rozluki.krn
!!!cenid: 18xx:3344
!!!COM: Anonim
!!!COM-rismID: pe30004985
!!!CDT:
!!!CNT:
!!!GTL: Pieśni polskie i ruskie ludu galicyjskiego
!!!OTL: 122. Tiazko znesty toji rozłuki
!!!OMV: 122
!!!PDT: 1833
!!!AGN:
!!!SMS-siglum: PL-Wnifc
!!!SMS-shelfmark: 13846
!!!SMS-shelfwork: 001-122 G
!!!SMS-variant:
!!!SMS-altvar:
!!!NIFC-rismSourceID: 1001036701
!!!NIFC-rismChildID: 1001039628
!!!NIFC-islandoraID: nifc:210326
!!!URL-pdf-islandora: https://repozytorium.nifc.pl/islandora/object/nifc%3A210326/datastream/PDF/view
!!!URL-scan:
!!!IIIF:
!!!ONB-nifc:
!!!OMD: Andantino.
!!!AIN: 2 piano 1 vox
!!!key: g
**kern	**kern	**dynam	**kern	**text
*part3	*part2	*part2	*part1	*part1
*staff3	*staff2	*	*staff1	*staff1
*>[A,B,B]	*>[A,B,B]	*>[A,B,B]	*>[A,B,B]	*>[A,B,B]
*>A	*>A	*>A	*>A	*>A
*I"FORTEPIAN.	*I"FORTEPIAN.	*	*I"GŁOS.	*
*Ipiano	*Ipiano	*	*Ivox	*
*ICklav	*ICklav	*	*ICvox	*
*IGacmp	*IGacmp	*	*IGsolo	*
*clefF4	*clefG2	*	*clefG2	*
*k[e-b-]	*k[e-b-]	*	*k[e-b-]	*
*g:	*g:	*	*g:	*
*M6/8	*M6/8	*	*M6/8	*
=1	=1	=1	=1	=1
*ped	*	*	*	*
!LO:TX:t=P:problem=mixed beam	!LO:TX:a:t=E.199.:rj	!	!	!
16GGG/LL	(8ggL 8g\	<	(<8g/	Tiaz-
16d\	.	.	.	.
(>16B- 16G\	8bb- 8b-\	[	8b-/)	.
16d\)	.	.	.	.
(>16B- 16G\	8dddJ 8dd\)	>	8dd/	-ko
*Xped	*	*	*	*
16d\JJ)	.	.	.	.
(>16ALL 16F#X\	8.dddL 8.dd\	.	(>8.dd\L	zne-
16d\)	.	.	.	.
(>16A 16F# 16D\	.	.	.	.
16d\)	16cccK 16cc\	]	16cc\Jk)	.
(>16B- 16G\	8bb-J 8b-\	.	8b-\	-sty
16d\JJ)	.	.	.	.
=2	=2	=2	=2	=2
!LO:TX:t=P:problem=mixed beam	!	!	!	!
16EE-/LL	8cc#XL 8a 8g^<\	.	8cc#X\	to-
16A\	.	.	.	.
(>16G 16E-\	8cc# 8a 8g^<\	.	8cc#\	-ji
16A\)	.	.	.	.
(>16G 16E-\	8cc#J 8a 8g^<\	.	8cc#\	roz-
16A\JJ)	.	.	.	.
16F#XLL 16D\	8.ddL 8.a 8.f#X^/	.	(>8.dd\L	-łu-
16A\JJ	.	.	.	.
8F# 8D\	.	.	.	.
.	(16ccn/L	.	16ccn\Jk)	.
8r	16b-/)	.	(<16b-/LL	-ki,
.	16a|/JJ	.	16a/JJ)	.
!!LO:LB:g=original
=3	=3	=3	=3	=3
!LO:TX:t=P:problem=mixed beam	!	!	!	!
(>16GGG/LL	8b-^/L	.	8b-/	za-
!	!	!LO:HP:b=2	!	!
16G\	.	<	.	.
16B-\	8b-^/J	.	8b-/	-daw-
16d\JJ	.	.	.	.
.	(<8qcc/	[	.	.
8g\)	16b-/LL	.	(<16b-/LL	-szy
.	16a/JJ)	.	16a/JJ)	.
!	!LO:TX:b:t=P:problem=diminuendolike accent	!	!	!
(<16CC/LL	(>4a^/	.	4a/	ser-
16C/JJ)	.	.	.	.
(>16GLL 16E- 16C\	.	.	.	.
16A\)	.	.	.	.
.	8qa/	.	.	.
(>16G 16E- 16C\	(>16.ee-\LL	.	8ee-\	-ciu
16A\JJ)	.	.	.	.
.	32dd\JJk))	.	.	.
=4	=4	=4	=4	=4
(>16D\LL	8dd\	.	8dd\	ra-
16G\	.	.	.	.
16B-\	8.dd/L	.	8.dd\	-ny
16G\	.	.	.	.
16A 16D\	.	.	.	.
16c\JJ)	16f#X/Jk	.	16f#X/	i
4B- 4G\	4g/	.	4g/	mu-
8r	8g/	.	8g/	-ki,
!!LO:LB:g=original
=5!|:	=5!|:	=5!|:	=5!|:	=5!|:
*>B	*>B	*>B	*>B	*>B
(<8BB-L 8BBB-|/	(>8ffL 8dd|\	.	8ff\	z_szczy-
8BB- 8BBB-|/	8ff 8dd|\	.	8ff\	-ro-
8BB-J 8BBB-|/)	8ffJ 8dd|\)	.	8ff\	-ho
(<8AAL 8AAA|/	(>8ffL 8cc|\	.	8ff\	ko-
8AA 8AAA|/	8ff 8cc|\	.	8ff\	-cha-
8AA-XJ 8AAA-X|/)	8ffJ 8cc|\)	.	8ff\	-nia,
=6	=6	=6	=6	=6
8GG 8GGG/	8ggL 8dd 8bn 8g\	.	8gg\	wir-
8BnL 8BBn|^<\	8.gg 8.dd 8.g\	.	8.gg^>\	-noj
8GJ 8GG|\	.	.	.	.
.	16ffJk 16dd 16g\	.	16ff\	my-
8c 8C|\	4ee- 4cc 4g\	.	4ee-\	-ło-
!	!	!LO:DY:b=2:rj	!	!
8CL 8CC|/	.	f	.	.
8DJ 8DD|/	8dd 8g 8f\	.	8dd\	-sty,
!!LO:LB:g=original
=7	=7	=7	=7	=7
8E-L 8EE-|/	(<8ccL 8g 8c|/	.	8cc\	pła-
!	!	!LO:DY:b=2:rj	!	!
8E-/	8cc 8g 8c|/	p	8cc\	-ka-
8E-/J	8ccJ 8g 8c|/)	.	8cc\	-ty,
(8B-XL 8E-|\	(>8ccL 8g-X|\	.	8cc\	tu-
8B- 8E-|\	8cc 8g-|\	.	8cc\	-ży-
8B-J 8E-|\)	8ccJ 8g-|\)	.	8cc\	-ty
=8	=8	=8	=8	=8
8A 8E-\	8ffL 8cc 8f\	.	8ff\	mi-
8AAL 8AAA^/	8.ff 8.cc 8.f\	.	8.ff\	-sto
8AJ 8AA/	.	.	.	.
.	16ee-Jk 16cc 16f\	.	16ee-\	ra-
8B-L 8BB-|/	8.ddL 8.f^\	.	(8.dd\L	-do-
8BB- 8BBB-|/	.	.	.	.
.	(16cc\L	.	16cc\Jk)	.
8CJ 8CC|/	16b-\)	.	(16b-\LL	-sty
.	16a|\JJ	.	16a\JJ)	.
!!LO:PB:g=original
=9	=9	=9	=9	=9
*^	*^	*	*	*
8D 8DD/	8ryy	(>8.ddL 8.a 8.f#X 8.d\	2ryy	.	(8.dd\L	wyj-
!	!	!	!	!LO:DY:b=2	!	!
4D\	8AL 8F#X/	.	.	sf	.	.
.	.	16cc\Jk)	.	.	16cc\Jk	.
!	!	!LO:TUP:b:problem=klamra łukowa	!	!	!LO:TUP:a:problem=klamra łukowa	!
.	8B-J 8G/	24b-LL 24d/	.	.	24b-\LL	-dy,
!	!	!	!	!	!LO:TX:a:i:t=ritard.	!
.	.	24a/	.	.	24a\	.
.	.	24g/JJ	.	.	24g\JJ)	.
8D 8DD|/	8ryy	8.ddL 8.a 8.f# 8.d\	.	.	(8.dd\L	wyj-
!	!	!	!	!LO:DY:b=2	!	!
4D\	8AL 8F#/	.	8ryy	sf	.	.
.	.	16cc\Jk	.	.	16cc\Jk	.
!	!	!LO:TUP:b:problem=klamra łukowa	!	!	!LO:TUP:a:problem=klamra łukowa	!
.	8B-J 8G/	24b-LL 24d/	8d\	.	24b-\LL	-dy,
.	.	24a/	.	.	24a\	.
.	.	24g/JJ	.	.	24g\JJ)	.
*v	*v	*	*	*	*	*
*	*v	*v	*	*	*
=10	=10	=10	=10	=10
!	!	!	!LO:TX:a:i:t=à tempo	!
8E-L 8EE-|/	(8cc#XL 8a 8g|\	.	8cc#X\	ja-
8E- 8EE-|/	8cc# 8a 8g|\	.	8cc#\	-sna
8E-J 8EE-|/	8cc#J 8a 8g|\)	.	8cc#\	jak
4.D 4.DD^/	8.ddL 8.a 8.f#X^\	.	(>8.dd\L	son-
.	(16ccny\L	.	16ccn\Jk)	.
.	16b-\	.	(<16b-/LL	-ce,
.	16a\JJ)	.	16a/JJ)	.
!!LO:LB:g=original
=11	=11	=11	=11	=11
.	8qg/	.	.	.
!	!	!LO:DY:rj	!LO:TX:a:i:t=à tempo	!
(>16GGG/LL	8b-^/L	p	8b-/	naj
16G\	.	.	.	.
16B-\	8b-^/	.	8b-/	tia
16d\JJ	.	.	.	.
!	!LO:N:vis=16	!	!	!
8g\)	(16.b-/L	.	(<16b-/LL	zo-
.	.	.	16a/JJ)	.
.	32a/JJk)	.	.	.
(<16CC/LL	(4a^\	.	4a/	-wy-
16C/JJ)	.	.	.	.
(>16GLL 16E- 16C\	.	.	.	.
16A\)	.	.	.	.
(>16G 16E- 16C\	16.ee-\LL)	.	(>16.ee-\LL	-dżu
16A\JJ)	.	.	.	.
.	32dd\JJk	.	32dd\JJk)	.
=12	=12	=12	=12	=12
(>16D\LL	8dd\	.	8dd\	choc'
16G\	.	.	.	.
!	!LO:TX:t=P:problem=mixed beam	!LO:DY:rj	!	!
16B-\	8.dd\L	sf >	8.dd\	cz'roz
16G\	.	.	.	.
16A\	.	.	.	.
16c\JJ)	16f#X/Jk	]	16f#X/	wi-
8B- 8G\	8g/	.	8g/	-kon-
4GG/	4g/	.	8g/	-ci.
.	.	.	8r	.
==	==	==	==	==
*-	*-	*-	*-	*-
!!!system-decoration: <s1>{(s2,s3)}
!!!RDF**kern: > = above
!!!RDF**kern: < = below
!!!RDF**kern: | = vertical stroke
!!!ENC: Anastazja Marusiak
!!!END: 2021-11-10
!!!ENC: Andrzej Kubiczek
!!!END: 2021-11-11
!!!YEC: Copyright 2022 Narodowy Instytut Fryderyka Chopina (https://polishscores.org)
!!!YEM: License CC-BY-4.0 (https://creativecommons.org/licenses/by/4.0)
